X: 2279
M: 6/8
L: 1/8
K: Bb
|:\
vF2vG uB2uc | d2d- dcB | d2d- dcB | cBc dBG |\
|:\
def fdB | efg gab | def fdB | cAF (F2e) |\
def fdB | efg gab | fdB (c2B) | G3 B3 :|


